src/lib/packages/icons/src/assets/line/reddit.svg

<svg width="24" height="24" viewBox="0 0 24 24" fill="none" xmlns="http://www.w3.org/2000/svg">
<path d="M18.93 9.47025C18.47 9.49025 18.02 9.62025 17.63 9.85025C16.19 8.97025 14.57 8.45025 12.96 8.32025L13.65 5.29025L15.51 5.66025C15.67 6.66025 16.53 7.44025 17.58 7.44025C18.74 7.44025 19.68 6.50024 19.68 5.34024C19.68 4.18024 18.74 3.24023 17.58 3.24023C16.84 3.24023 16.2 3.62026 15.82 4.20026L13.23 3.68024C12.83 3.60024 12.44 3.85024 12.35 4.25024L11.43 8.28024C9.63 8.33024 7.89002 8.84023 6.35002 9.77023C5.91002 9.51023 5.42002 9.38024 4.88002 9.40024C4.15002 9.42024 3.48001 9.73025 2.98001 10.2603C1.95001 11.3503 2.00002 13.0802 3.10002 14.1102C3.19002 14.1902 3.28002 14.2702 3.38002 14.3402C3.38002 14.4002 3.38002 14.4603 3.38002 14.5103C3.38002 17.9503 7.25001 20.7502 12.01 20.7502C16.77 20.7502 20.64 17.9503 20.64 14.5703C20.64 14.4903 20.65 14.4103 20.65 14.3203C21.33 13.8003 21.75 12.9702 21.73 12.0902C21.67 10.5902 20.38 9.42025 18.91 9.47025H18.93ZM17.58 4.75024C17.91 4.75024 18.18 5.02025 18.18 5.35025C18.18 5.68025 17.91 5.95026 17.58 5.95026C17.25 5.95026 16.98 5.68025 16.98 5.35025C16.98 5.02025 17.25 4.75024 17.58 4.75024ZM19.57 13.2502C19.3 13.3902 19.13 13.6803 19.16 13.9803C19.17 14.1403 19.17 14.3002 19.16 14.5202C19.16 17.1302 15.96 19.2603 12.03 19.2603C8.10001 19.2603 4.90001 17.1402 4.90001 14.4602C4.89001 14.3002 4.89001 14.1403 4.90001 13.9803C4.92001 13.6703 4.75001 13.3702 4.47001 13.2402C4.35001 13.1802 4.24001 13.1102 4.14001 13.0202C3.65001 12.5602 3.63001 11.7803 4.09001 11.2903C4.31001 11.0503 4.62001 10.9202 4.94001 10.9102C4.95001 10.9102 4.97001 10.9102 4.98001 10.9102C5.29001 10.9102 5.59002 11.0302 5.82002 11.2402C6.08002 11.4802 6.46001 11.5102 6.75001 11.3102C8.19001 10.3302 9.87002 9.80024 11.6 9.78024H12.38C14.03 9.82024 15.76 10.3903 17.24 11.3903C17.53 11.5903 17.93 11.5602 18.18 11.3102C18.4 11.1002 18.68 10.9802 18.98 10.9702C19.65 10.9402 20.22 11.4702 20.25 12.1302C20.25 12.6002 19.99 13.0402 19.57 13.2402V13.2502ZM8.84001 14.8302C8.09001 14.8302 7.49002 14.2203 7.49002 13.4803C7.49002 12.7403 8.09001 12.1302 8.84001 12.1302C9.59001 12.1302 10.19 12.7403 10.19 13.4803C10.19 14.2203 9.59001 14.8302 8.84001 14.8302ZM15.35 16.7202C15.5 16.8702 15.49 17.1102 15.35 17.2502C15.35 17.2502 14.01 18.2402 12.01 18.2402C10.81 18.2902 9.63001 17.9203 8.67001 17.2003C8.54001 17.0403 8.56001 16.8102 8.72001 16.6902C8.85001 16.5802 9.05 16.5802 9.18 16.6902C9.99 17.2902 10.84 17.5403 11.99 17.5403C13.14 17.5403 13.99 17.3002 14.81 16.7202C14.96 16.5702 15.2 16.5802 15.34 16.7202H15.35ZM16.45 13.4803C16.45 14.2303 15.85 14.8302 15.1 14.8302C14.35 14.8302 13.75 14.2203 13.75 13.4803C13.75 12.7403 14.36 12.1302 15.1 12.1302C15.84 12.1302 16.45 12.7403 16.45 13.4803Z" fill="currentColor"/>
</svg>

<svg xmlns="http://www.w3.org/2000/svg" width="24" height="24" fill="none"><path fill="currentColor" d="M18.93 9.47c-.46.02-.91.15-1.3.38-1.44-.88-3.06-1.4-4.67-1.53l.69-3.03 1.86.37c.16 1 1.02 1.78 2.07 1.78a2.1 2.1 0 1 0 0-4.2c-.74 0-1.38.38-1.76.96l-2.59-.52c-.4-.08-.79.17-.88.57l-.92 4.03c-1.8.05-3.54.56-5.08 1.49-.44-.26-.93-.39-1.47-.37-.73.02-1.4.33-1.9.86a2.72 2.72 0 0 0 .12 3.85c.09.08.18.16.28.23v.17c0 3.44 3.87 6.24 8.63 6.24 4.76 0 8.63-2.8 8.63-6.18 0-.08.01-.16.01-.25.68-.52 1.1-1.35 1.08-2.23-.06-1.5-1.35-2.67-2.82-2.62h.02Zm-1.35-4.72c.33 0 .6.27.6.6 0 .33-.27.6-.6.6-.33 0-.6-.27-.6-.6 0-.33.27-.6.6-.6Zm1.99 8.5c-.27.14-.44.43-.41.73.01.16.01.32 0 .54 0 2.61-3.2 4.74-7.13 4.74-3.93 0-7.13-2.12-7.13-4.8-.01-.16-.01-.32 0-.48a.764.764 0 0 0-.43-.74c-.12-.06-.23-.13-.33-.22-.49-.46-.51-1.24-.05-1.73.22-.24.53-.37.85-.38h.04c.31 0 .61.12.84.33.26.24.64.27.93.07a8.785 8.785 0 0 1 4.85-1.53h.78c1.65.04 3.38.61 4.86 1.61.29.2.69.17.94-.08a1.224 1.224 0 0 1 2.07.82c0 .47-.26.91-.68 1.11v.01ZM8.84 14.83a1.35 1.35 0 1 1 .001-2.701 1.35 1.35 0 0 1-.001 2.701Zm6.51 1.89c.15.15.14.39 0 .53 0 0-1.34.99-3.34.99-1.2.05-2.38-.32-3.34-1.04a.354.354 0 0 1 .05-.51c.13-.11.33-.11.46 0 .81.6 1.66.85 2.81.85 1.15 0 2-.24 2.82-.82.15-.15.39-.14.53 0h.01Zm1.1-3.24a1.35 1.35 0 0 1-2.7 0c0-.74.61-1.35 1.35-1.35.74 0 1.35.61 1.35 1.35Z"/></svg>
